X: 966
T: All The Forepart Of The Night
R: jig
M: 6/8
K: Edorian
E2E G2A|B2B B2G|F2F E2 D|E6|
E2E G2A B2c d2d|cBA AGA|B6|
e2B BAG|A2A d3|c2c B2E|E2E D3|
E2E G2A|B2c d2c|BEE F2D|E6|
B2G B2e|d2B d3|A2A G2F|E6|
B2G B2e|d2B d3|e3 c2e|f6|
g3 g3|f2d B3|e3 e2B|GFG A3|
B2G B2e|d2B d3|e3 dBd|e6||

